X:3190
T:Brudmarsch från Nora
R:Brudmarsch
O:Nora, Västmanland
Z:Karl Ljungkvist, 2013-02-28
M:2/4
L:1/16
K:G
[M:2/4] D2 | G3B d2d2 | c2BG A2Ac | B2BG E2EC | [M:3/4] D2D2 A,6 :|
|: [M:2/4] DF | A6 AB | cBAG A2DF | A4 ABcd | e2d^c d3B | cBAG F2EF | G6 :|
(:musicend:)
(:music:)
